X: 23997
T: Loftus Jones
R: reel
M: 4/4
K: Gmajor
|:g4 f2 e2|d3c Bc d2|cBAB G2 A2|BcBA G2 A2|
Bc d2 cd e2|d2 cB cBAG|FGFE DA D2|GAGF E2 c2|
|:dedB cBcA|G2 D2 E2 F2|G2 E2 F2 G2|A2 F2 G2 A2|B2 G2 A2 B2|
c4 d4|cBAG FG A2|G2 dc B2 D2|G4 G2 z2:|
|:B2 F2 G2 E2|F2 D2 E2 F2|G2 A2 F2 B2|E4 F4|
B2 B2 A2 A2|GABc B3A|GABc dcBA|GEFD E4|
BE E2 BEGE|DF F2 DFAF|EG G2 EGBG|FA A2 FAcA|
GB B2 GBdB|GB B2 GBAd|ef g2 f2 gf|e4 e2 f2|
g3e f3d|efge d3B|c3A B3G|AGFE DE F2|
G2 dc B2 D2|AGFE D2 d2|cBAG FGAF|G4 G2 z2:|

